fs/comment_off_16_filled.svg

<svg viewBox="0 0 16 16" fill="none" xmlns="http://www.w3.org/2000/svg" height="1em" width="1em">
  <path d="M11.2929 12L14.1464 14.8536C14.3417 15.0488 14.6583 15.0488 14.8536 14.8536C15.0488 14.6583 15.0488 14.3417 14.8536 14.1464L1.85355 1.14645C1.65829 0.951184 1.34171 0.951184 1.14645 1.14645C0.951184 1.34171 0.951184 1.65829 1.14645 1.85355L1.88471 2.59182C1.34352 3.0504 1 3.73507 1 4.49999V9.49999C1 10.8807 2.11929 12 3.5 12H4V13.9422C4 14.7842 4.99168 15.2341 5.62533 14.6797L8.68787 12H11.2929ZM15 9.49999C15 10.4157 14.5077 11.2164 13.7733 11.6519L4.12134 1.99999H12.5C13.8807 1.99999 15 3.11927 15 4.49999V9.49999Z" fill="#212121"/>
</svg>

<svg viewBox="0 0 16 16" fill="none" xmlns="http://www.w3.org/2000/svg" height="1em" width="1em">
  <path d="m11.293 12 2.853 2.854a.5.5 0 0 0 .708-.708l-13-13a.5.5 0 1 0-.708.708l.739.738A2.495 2.495 0 0 0 1 4.5v5A2.5 2.5 0 0 0 3.5 12H4v1.942a.98.98 0 0 0 1.625.738L8.688 12h2.605ZM15 9.5c0 .916-.492 1.716-1.227 2.152L4.121 2H12.5A2.5 2.5 0 0 1 15 4.5v5Z" fill="#212121"/>
</svg>
